X:1
T:Par ton regart
T:Claudin de Sermisy
T:Source : Second livre contenant 31 chansons à 4, eslevées de plusieurs livres---Paris---P.Attaignant---1535. Editor : André Vierendeels (05/05/18) Notes : Original clefs : C1, C3, C3, F3 Original note values have been halved Editorial accidentals above the staff
T:Par ton regart
T:©
T:©
T:©
C:Claudin de Sermisy
Z:©
%%score [ 1 2 3 4 ]
L:1/8
Q:1/4=120
M:2/2
K:F
V:1 treble nm="Soprano" snm="S"
V:2 treble nm="Alto" snm="A"
V:3 treble-8 nm="Tenor" snm="T"
V:4 bass nm="Bass" snm="B"
V:1
 G8 | A4 G4 | F2 F2 G2 A2 | B2 B4 A2 | B2 G2 B2 A2 | G4 A2 c2 | B2 A4 c2 | d3 c B2 A2- | %8
w: Par|ton re-|gart, tu me fais|e- spe- *|rer, en e- spe-|rant, en e-|spe- rant me|con- * * vient|
"^#" AG G4 F2 | G2 G2 G2 G2 | F4 F2 A2- | AB c2 c2 G2- | GFGA B2 A2 | z2 A2 F2 G2 | A4 A4 | %15
w: _ _ en- du-|rer, en en- du-|rant ne fais|_ que me com- plain-|* * * * * dre,|mais la com-|plain- te|
 G4 G2 G2 | A4 B2 c2- | cB B4 A2 | B2 G2 B2 A2 | G4 A2 c2 | B2 A4 c2 | d3 c B2 A2- | AG G4 F2 | %23
w: ne peult mon|mal e- stain-||dre, si du dan-|ger, si du|dan- ger ne|me _ _ veult|_ _ re- ti-|
 G2 G2 B2 A2 | G4 A2 c2 | B2 A4 c2 | d3 c B2 A2- | AG G4 F2 | G8 |] %29
w: rer, si du dan-|ger, si du|dan- ger ne|me _ _ veult|_ _ re- ti-|rer.|
V:2
 D8 | F4 E4 | D2 D2 D2 F2 |"^b" F2 E2 F4 | D4 D2 F2 | E2 D4 C2 | D2 F2 D2 E2 | F2 G2 D2 F2 | %8
w: Par|ton re-|gart, tu me fais|e- spe- *|rer, en e-|spe- rant me|con- vient en- du-||
 E2 C2 D4 | B,2 B,2 B,2 G,2 | B,2 D3 E F2 | F2 C2 E4 | D4 z2 D2 | E2 F3 E D2- | D2 C2 D2 A,2 | %15
w: * * rer,|en en- du- tant|ne fais que me|com- plain- *|dre, mais|la com- * plain-|* * te ne|
 B,3 C D2 E2 | F4 F2 G2- |"^b" G2 E2 F4 | D4 D2 F2 | E2 D4 C2 | D2 F2 D2 E2 | F2 G2 D2 F2 | %22
w: peult _ _ mon|mal e- stain-||dre, si du|dan- ger, si|du dan- ger ne|me veult re- *|
 E2 C2 D4 | B,4 D2 F2 | E2 D4 C2 | D2 F2 D2 E2 | F2 G2 D2 F2 | E2 C2 D4 | B,8 |] %29
w: * * ti-|rer, si du|dan- ger, si|du dan- ger ne|me veult re- *|* * ti-|rer.|
V:3
 G8 | c4 c4 | A2 A2 B2 c2 | d2 cB c2 c2 | B4 z4 | z2 d2 f2 e2 | d3 c/B/ A2 G2 | A2 B4 c2- | %8
w: Par|ton re-|gart, tu me fais|e- * * * spe-|rer,|en e- spe-|rant _ _ _ me|con- vient en-|
 cBAG A4 | G4 z2 B2 | B2 B2 F2 F2 | A3 B c2 c2 | BABc d4 | A4 z2 d2 | e2 e2 f4 | d4 z2 B2 | %16
w: * * * * du-|rer, en|en- du- rant ne|fais que me com-|plain- * * * *|dre, mais|la com- plain-|te ne|
 c2 c2 d2 e2- | ed B2 c4 | B4 z4 | z2 d2 f2 e2 | d3 c/B/ A2 G2 | A2 B4 c2- | cB G2 A4 | G4 z4 | %24
w: peult mon mal e-|* * * stain-|dre,|si du dan-|ger _ _ _ ne|me veult re-|* * * ti-|rer,|
 z2 d2 f2 e2 | d3 c/B/ A2 G2 | A2 B4 c2- | cBAG A4 | G8 |] %29
w: si du dan-|ger _ _ _ ne|me veult re-|* * * * ti-|rer.|
V:4
 G,8 | F,4 C,4 | D,2 D,2 G,2 F,2 | B,2 G,2 F,4 | z4 z2 A,2 | C2 B,2 A,4 | z2 D,2 F,2 E,2 | %7
w: Par|ton re-|gart, tu me fais|e- spe- rer,|en|e- spe- rant|en e- spe-|
 D,2 G,2 G,2 F,2 |"^b" C,2 E,2 D,4 | z2 _E,2 E,2 E,2 | B,,2 B,,2 D,3 E, | F,2 F,2 C,D,E,F, | %12
w: rant me con- vient|en- du- rer,|en en- du-|rant ne fais que|le com- plain- * * *|
 G,4 D,4 | z2 A,2 B,2 B,2 | A,4 D,4 | G,4 G,2 G,2 |"^b" F,3 E, D,2 C,2 |"^b" G,4 F,4 | %18
w: * dre,|mais la com-|plain- te|ne peult mon|mal _ _ e-|stain- dre,|
"^#" z4 z2 A,2 | C2 B,2 A,4 | z2 D,2 F,2 E,2 | D,2 G,2 G,2 F,2 |"^b" C,2 E,2 D,4 | G,4 z2 A,2 | %24
w: si|du dan- ger,|si du dan-|ger ne me veult|re- * ti-|rer, si|
 C2 B,2 A,4 | z2 D,2 F,2 E,2 | D,2 G,2 G,2 F,2 |"^b" C,2 E,2 D,4 | G,8 |] %29
w: du dan- ger,,|si du dan-|ger ne me veult|re- * ti-|rer.|

